!!!COM: Igor (Fyodorovich) Stravinsky
!!!OTL: [T394_Str-w37p80h169m1-h172m2]
**kern	**dynam	**kern	**dynam	**kern	**dynam	**kern	**dynam	**kern	**dynam	**kern	**dynam	**kern	**kern	**dynam	**kern	**dynam	**kern	**kern	**kern	**dynam	**kern	**dynam	**kern	**dynam
*grp:A	*grp:A	*grp:A	*grp:A	*grp:A	*grp:A	*grp:A	*grp:A	*grp:A	*grp:A	*grp:A	*grp:A	*grp:A	*grp:A	*grp:A	*grp:A	*grp:A	*grp:B	*grp:B	*grp:A	*grp:A	*grp:B	*grp:B	*grp:A	*grp:A
*part14	*part14	*part13	*part13	*part12	*part12	*part11	*part11	*part10	*part10	*part9	*part9	*part8	*part7	*part7	*part6	*part6	*part5	*part4	*part3	*part3	*part2	*part2	*part1	*part1
*staff14	*staff14	*staff13	*staff13	*staff12	*staff12	*staff11	*staff11	*staff10	*staff10	*staff9	*staff9	*staff8	*staff7	*staff7	*staff6	*staff6	*staff5	*staff4	*staff3	*staff3	*staff2	*staff2	*staff1	*staff1
*I"Contrabass	*I"Contrabass	*I"Violoncello	*I"Violoncello	*I"Viola	*I"Viola	*I"Violin II	*I"Violin II	*I"Violin I	*I"Violin I	*I"Timpani	*I"Timpani	*I"Trombone 3 Tuba	*I"Trombone 1. 2.	*I"Trombone 1. 2.	*I"Trumpet in C 1	*I"Trumpet in C 1	*I"Horn in F 3. 4.	*I"Horn in F 1. 2.	*I"Bassoon I. II.	*I"Bassoon I. II.	*I"Clarinet in Bb I. II.	*I"Clarinet in Bb I. II.	*I"Flute	*I"Flute
*I'Cb.	*	*I'Vc.	*	*I'Vla.	*	*I'Vln. II	*	*I'Vln. I	*	*I'Timp.	*	*I'Tbn. III. Tuba	*I'Tbn. I. II.	*	*I'C Tpt. I.	*	*I'Hn. III. IV.	*I'Hn. I. II.	*I'Bsn.	*	*I'Cl.	*	*I'Fl.	*
!!pagebreak:original
*clefF4	*	*clefF4	*	*clefC3	*	*clefG2	*	*clefG2	*	*clefF4	*	*clefF4	*clefF4	*	*clefG2	*	*clefG2	*clefG2	*clefF4	*	*clefG2	*	*clefG2	*
*ITrd7c12	*	*	*	*	*	*	*	*	*	*	*	*	*	*	*	*	*ITrd0c0	*ITrd0c0	*	*	*ITrd0c0	*	*	*
*k[]	*	*k[]	*	*k[]	*	*k[]	*	*k[]	*	*k[]	*	*k[]	*k[]	*	*k[]	*	*k[]	*k[]	*k[]	*	*k[]	*	*k[]	*
*	*	*	*	*	*	*	*	*	*	*	*	*	*	*	*	*	*	*	*	*	*	*	*	*
*M4/4	*	*M4/4	*	*M4/4	*	*M4/4	*	*M4/4	*	*M4/4	*	*M4/4	*M4/4	*	*M4/4	*	*M4/4	*M4/4	*M4/4	*	*M4/4	*	*M4/4	*
!!LO:REH:t=169
=1	=1	=1	=1	=1	=1	=1	=1	=1	=1	=1	=1	=1	=1	=1	=1	=1	=1	=1	=1	=1	=1	=1	=1	=1
*	*	*	*	*	*	*	*	*	*	*	*	*	*	*	*	*	*	*	*	*	*^	*	*	*
!	!	!	!LO:DY:t={ %s	!	!	!	!	!	!	!	!	!	!	!	!	!	!	!	!	!LO:DY:t=%s stacc. e marc.	!LO:TX:a:i:t=ben marc.	!	!	!	!
8ryy	4ryy	8ryy	4ryy	8ryy	4ryy	8ryy	4ryy	8ryy	4ryy	1ryy	.	1ryy	1ryy	.	1ryy	.	1r	1r	8ryy	4ryy	4A-X	4A-	f	1ryy	.
4.ryy	.	4.ryy	.	4.ryy	.	4.ryy	.	4.ryy	.	.	.	.	.	.	.	.	.	.	8ryy	.	.	.	.	.	.
.	.	.	.	.	.	.	.	.	.	.	.	.	.	.	.	.	.	.	8ryy	.	4B-	4B-	.	.	.
.	.	.	.	.	.	.	.	.	.	.	.	.	.	.	.	.	.	.	8ryy	.	.	.	.	.	.
2ryy	.	2ryy	.	2ryy	.	2ryy	.	2ryy	.	.	.	.	.	.	.	.	.	.	8ryy	.	8A-L	8A-L	.	.	.
.	.	.	.	.	.	.	.	.	.	.	.	.	.	.	.	.	.	.	8ryy	.	8B-J	8B-J	.	.	.
.	.	.	.	.	.	.	.	.	.	.	.	.	.	.	.	.	.	.	8ryy	.	[4c	8c	.	.	.
.	.	.	.	.	.	.	.	.	.	.	.	.	.	.	.	.	.	.	8ryy	.	.	8r	.	.	.
=2	=2	=2	=2	=2	=2	=2	=2	=2	=2	=2	=2	=2	=2	=2	=2	=2	=2	=2	=2	=2	=2	=2	=2	=2	=2
4ryy	.	4ryy	.	4ryy	.	4ryy	.	1ryy	.	1ryy	.	1ryy	1ryy	.	1ryy	.	1r	1r	8ryy	.	4c]	4r	.	1ryy	.
.	.	.	.	.	.	.	.	.	.	.	.	.	.	.	.	.	.	.	8ryy	.	.	.	.	.	.
8ryy	.	8ryy	.	8ryy	.	8ryy	.	.	.	.	.	.	.	.	.	.	.	.	8ryy	.	4A-X	4A-	.	.	.
8ryy	.	8ryy	.	8ryy	.	8ryy	.	.	.	.	.	.	.	.	.	.	.	.	8ryy	.	.	.	.	.	.
4ryy	.	4ryy	.	4ryy	.	4ryy	.	.	.	.	.	.	.	.	.	.	.	.	8ryy	.	4B-	4B-	.	.	.
.	.	.	.	.	.	.	.	.	.	.	.	.	.	.	.	.	.	.	8ryy	.	.	.	.	.	.
8ryy	.	8ryy	.	8ryy	.	8ryy	.	.	.	.	.	.	.	.	.	.	.	.	8ryy	.	8A-L	8A-L	.	.	.
8ryy	.	8ryy	.	8ryy	.	8ryy	.	.	.	.	.	.	.	.	.	.	.	.	8ryy	.	8B-J	8B-J	.	.	.
*	*	*	*	*	*	*	*	*	*	*	*	*	*	*	*	*	*	*	*	*	*v	*v	*	*	*
=3	=3	=3	=3	=3	=3	=3	=3	=3	=3	=3	=3	=3	=3	=3	=3	=3	=3	=3	=3	=3	=3	=3	=3	=3
!	!	!	!	!	!	!	!	!	!	!	!	!	!	!	!	!	!	!	!	!	!LO:TX:a:t=a 2	!	!	!
1ryy	.	1ryy	.	1ryy	.	1ryy	.	1ryy	.	1ryy	.	1ryy	1ryy	.	1ryy	.	1r	1r	8ryy	.	4c	.	1ryy	.
.	.	.	.	.	.	.	.	.	.	.	.	.	.	.	.	.	.	.	8ryy	.	.	.	.	.
.	.	.	.	.	.	.	.	.	.	.	.	.	.	.	.	.	.	.	8ryy	.	8A-XL	.	.	.
.	.	.	.	.	.	.	.	.	.	.	.	.	.	.	.	.	.	.	8ryy	.	8B-J	.	.	.
.	.	.	.	.	.	.	.	.	.	.	.	.	.	.	.	.	.	.	8ryy	.	4c	.	.	.
.	.	.	.	.	.	.	.	.	.	.	.	.	.	.	.	.	.	.	8ryy	.	.	.	.	.
.	.	.	.	.	.	.	.	.	.	.	.	.	.	.	.	.	.	.	8ryy	.	4d-X	.	.	.
.	.	.	.	.	.	.	.	.	.	.	.	.	.	.	.	.	.	.	8ryy	.	.	.	.	.
!!pagebreak:original
!!LO:REH:t=170
=4	=4	=4	=4	=4	=4	=4	=4	=4	=4	=4	=4	=4	=4	=4	=4	=4	=4	=4	=4	=4	=4	=4	=4	=4
*	*	*	*	*	*	*	*	*	*	*	*	*	*	*	*	*	*	*	*	*	*^	*	*	*
8ryy	.	8ryy	.	8ryy	.	8ryy	.	1ryy	.	1ryy	.	1ryy	1ryy	.	1ryy	.	1r	1r	8ryy	.	8A-XL	2ryy	.	1ryy	.
4.ryy	.	4.ryy	.	4.ryy	.	4.ryy	.	.	.	.	.	.	.	.	.	.	.	.	8ryy	.	8B-	.	.	.	.
.	.	.	.	.	.	.	.	.	.	.	.	.	.	.	.	.	.	.	8ryy	.	8c	.	.	.	.
.	.	.	.	.	.	.	.	.	.	.	.	.	.	.	.	.	.	.	8ryy	.	8d-XJ	.	.	.	.
2ryy	.	2ryy	.	2ryy	.	2ryy	.	.	.	.	.	.	.	.	.	.	.	.	8ryy	.	8cL	4ryy	.	.	.
.	.	.	.	.	.	.	.	.	.	.	.	.	.	.	.	.	.	.	8ryy	.	8A-J	.	.	.	.
.	.	.	.	.	.	.	.	.	.	.	.	.	.	.	.	.	.	.	8ryy	.	[4B-	8B-	.	.	.
.	.	.	.	.	.	.	.	.	.	.	.	.	.	.	.	.	.	.	8ryy	.	.	8r	.	.	.
=5	=5	=5	=5	=5	=5	=5	=5	=5	=5	=5	=5	=5	=5	=5	=5	=5	=5	=5	=5	=5	=5	=5	=5	=5	=5
2ryy	.	2ryy	.	2ryy	.	2ryy	.	1ryy	.	1ryy	.	1ryy	1ryy	.	1ryy	.	1r	1r	8ryy	.	8B-L]	8r	.	1ryy	.
.	.	.	.	.	.	.	.	.	.	.	.	.	.	.	.	.	.	.	8ryy	.	8c	8cL	.	.	.
.	.	.	.	.	.	.	.	.	.	.	.	.	.	.	.	.	.	.	8ryy	.	8d-X	8d-	.	.	.
.	.	.	.	.	.	.	.	.	.	.	.	.	.	.	.	.	.	.	8ryy	.	8cJ	8cJ	.	.	.
!	!	!	!	!	!	!	!	!	!	!	!	!	!	!	!	!	!	!	!	!	!LO:TX:a:t=a 2	!	!	!	!
8ryy	.	8ryy	.	8ryy	.	8ryy	.	.	.	.	.	.	.	.	.	.	.	.	8ryy	.	8A-XL	2ryy	.	.	.
8ryy	.	8ryy	.	8ryy	.	8ryy	.	.	.	.	.	.	.	.	.	.	.	.	8ryy	.	8B-	.	.	.	.
4ryy	.	4ryy	.	4ryy	.	4ryy	.	.	.	.	.	.	.	.	.	.	.	.	8ryy	.	8c	.	.	.	.
.	.	.	.	.	.	.	.	.	.	.	.	.	.	.	.	.	.	.	8ryy	.	8d-J	.	.	.	.
*	*	*	*	*	*	*	*	*	*	*	*	*	*	*	*	*	*	*	*	*	*v	*v	*	*	*
=6	=6	=6	=6	=6	=6	=6	=6	=6	=6	=6	=6	=6	=6	=6	=6	=6	=6	=6	=6	=6	=6	=6	=6	=6
8ryy	.	8ryy	.	8ryy	.	8ryy	.	1ryy	.	1ryy	.	1ryy	1ryy	.	1ryy	.	1r	1r	8ryy	.	8cL	.	1ryy	.
8ryy	.	8ryy	.	8ryy	.	8ryy	.	.	.	.	.	.	.	.	.	.	.	.	8ryy	.	8A-X	.	.	.
4ryy	.	4ryy	.	4ryy	.	4ryy	.	.	.	.	.	.	.	.	.	.	.	.	8ryy	.	8B-	.	.	.
.	.	.	.	.	.	.	.	.	.	.	.	.	.	.	.	.	.	.	8ryy	.	8cJ	.	.	.
2ryy	.	2ryy	.	2ryy	.	2ryy	.	.	.	.	.	.	.	.	.	.	.	.	8ryy	.	8dL	.	.	.
.	.	.	.	.	.	.	.	.	.	.	.	.	.	.	.	.	.	.	8ryy	.	8e-	.	.	.
.	.	.	.	.	.	.	.	.	.	.	.	.	.	.	.	.	.	.	8ryy	.	8d-X	.	.	.
.	.	.	.	.	.	.	.	.	.	.	.	.	.	.	.	.	.	.	8ryy	.	8cJ	.	.	.
!!pagebreak:original
=7	=7	=7	=7	=7	=7	=7	=7	=7	=7	=7	=7	=7	=7	=7	=7	=7	=7	=7	=7	=7	=7	=7	=7	=7
!	!	!	!	!	!	!	!	!	!	!	!	!	!	!	!	!	!	!	!	!	!LO:TX:a:t=a 2	!	!	!
8ryy	.	8ryy	4ryy	8ryy	.	8ryy	4ryy	2ryy	.	1ryy	.	1ryy	1ryy	.	1ryy	.	1r	1r	8ryy	4ryy	8A-XL	<	1ryy	.
4.ryy	.	8ryy	.	4.ryy	.	8ryy	.	.	.	.	.	.	.	.	.	.	.	.	8ryy	.	8B-	.	.	.
.	.	8ryy	.	.	.	8ryy	.	.	.	.	.	.	.	.	.	.	.	.	8ryy	.	8c	.	.	.
.	.	8ryy	.	.	.	8ryy	.	.	.	.	.	.	.	.	.	.	.	.	8ryy	.	8d-XJ	.	.	.
4ryy	.	8ryy	.	4ryy	.	8ryy	.	4ryy	.	.	.	.	.	.	.	.	.	.	8ryy	.	8e-L	.	.	.
.	.	8ryy	.	.	.	8ryy	.	.	.	.	.	.	.	.	.	.	.	.	8ryy	.	8fJ	.	.	.
4ryy	.	4ryy	4ryy	4ryy	.	4ryy	4ryy	4ryy	4ryy	.	.	.	.	.	.	.	.	.	4ryy	4ryy	4g'	[	.	.
!!LO:REH:t=171
=8	=8	=8	=8	=8	=8	=8	=8	=8	=8	=8	=8	=8	=8	=8	=8	=8	=8	=8	=8	=8	=8	=8	=8	=8
*	*	*	*	*	*	*	*	*	*	*	*	*	*	*	*	*	*^	*^	*	*	*	*	*	*
!	!	!	!	!	!	!	!	!	!	!	!	!	!	!	!	!	!	!	!LO:TX:b:i:t={ marcatissimo	!	!	!	!	!	!	!
4ryy	.	4ryy	.	4ryy	.	4ryy	.	4ryy	.	4ryy	.	4ryy	4ryy	.	4ryy	.	4r	4ryy	4r	4ryy	1ryy	.	4r	.	4ryy	.
*	*	*	*	*	*	*tremolo	*	*	*	*	*	*	*	*	*	*	*	*	*	*	*	*	*	*	*	*
*	*	*	*	*	*	*	*	*tremolo	*	*	*	*	*	*	*	*	*	*	*	*	*	*	*	*	*	*
!	!	!	!	!	!	!	!	!LO:TX:b:i:t={ a punta d'arco	!	!	!	!	!	!LO:DY:t={ %s	!	!	!	!	!	!	!	!	!	!	!LO:TX:a:t=a 2	!
8ryy	.	8ryy	.	8ryy	.	16ryy	.	16ryy	.	8ryy	4ryy	8ryy	8ryy	4ryy	8ryy	4ryy	4d-X^	4d-'	4d-X^	4d-'	.	.	(8d-XL	f	8ryy	4ryy
.	.	.	.	.	.	16ryy	.	16ryy	.	.	.	.	.	.	.	.	.	.	.	.	.	.	.	.	.	.
8ryy	.	8ryy	.	8ryy	.	16ryy	.	16ryy	.	8ryy	.	8ryy	8ryy	.	8ryy	.	.	.	.	.	.	.	8e-J	.	8ryy	.
.	.	.	.	.	.	16ryy	.	16ryy	.	.	.	.	.	.	.	.	.	.	.	.	.	.	.	.	.	.
2ryy	.	8ryy	.	8ryy	.	16ryy	.	16ryy	.	2ryy	.	2ryy	2ryy	.	2ryy	.	4e-X^	4e-'	4e-X^	4e-'	.	.	8fL	.	8ryy	.
.	.	.	.	.	.	16ryy	.	16ryy	.	.	.	.	.	.	.	.	.	.	.	.	.	.	.	.	.	.
.	.	8ryy	.	8ryy	.	16ryy	.	16ryy	.	.	.	.	.	.	.	.	.	.	.	.	.	.	8g-X	.	8ryy	.
.	.	.	.	.	.	16ryy	.	16ryy	.	.	.	.	.	.	.	.	.	.	.	.	.	.	.	.	.	.
.	.	8ryy	.	8ryy	.	16ryy	.	16ryy	.	.	.	.	.	.	.	.	8d-^L	8d-'L	8d-^L	8d-'L	.	.	8a-X)	.	8ryy	.
.	.	.	.	.	.	16ryy	.	16ryy	.	.	.	.	.	.	.	.	.	.	.	.	.	.	.	.	.	.
.	.	8ryy	.	8ryy	.	16ryy	.	16ryy	.	.	.	.	.	.	.	.	8e-^J	8e-'J	8e-^J	8e-'J	.	.	(8d-J	.	8ryy	.
.	.	.	.	.	.	16ryy	.	16ryy	.	.	.	.	.	.	.	.	.	.	.	.	.	.	.	.	.	.
=9	=9	=9	=9	=9	=9	=9	=9	=9	=9	=9	=9	=9	=9	=9	=9	=9	=9	=9	=9	=9	=9	=9	=9	=9	=9	=9
!	!	!	!	!	!	!	!	!LO:TX:b:i:t={ simile	!	!	!	!	!	!	!	!	!	!	!	!	!	!	!	!	!	!
2ryy	.	8ryy	.	8ryy	.	16ryy	.	16ryy	.	2ryy	.	2ryy	2ryy	.	2ryy	.	2f^	4f'	[2f^	4f'	1ryy	.	8e-L	.	8ryy	.
.	.	.	.	.	.	16ryy	.	16ryy	.	.	.	.	.	.	.	.	.	.	.	.	.	.	.	.	.	.
.	.	8ryy	.	8ryy	.	16ryy	.	16ryy	.	.	.	.	.	.	.	.	.	.	.	.	.	.	8f	.	8ryy	.
.	.	.	.	.	.	16ryy	.	16ryy	.	.	.	.	.	.	.	.	.	.	.	.	.	.	.	.	.	.
.	.	8ryy	.	8ryy	.	16ryy	.	16ryy	.	.	.	.	.	.	.	.	.	4r	.	4r	.	.	8g-X	.	8ryy	.
.	.	.	.	.	.	16ryy	.	16ryy	.	.	.	.	.	.	.	.	.	.	.	.	.	.	.	.	.	.
.	.	8ryy	.	8ryy	.	16ryy	.	16ryy	.	.	.	.	.	.	.	.	.	.	.	.	.	.	8a-XJ	.	8ryy	.
.	.	.	.	.	.	16ryy	.	16ryy	.	.	.	.	.	.	.	.	.	.	.	.	.	.	.	.	.	.
4ryy	.	8ryy	.	8ryy	.	16ryy	.	16ryy	.	4ryy	.	4ryy	4ryy	.	4ryy	.	4r	4r	4f]	4r	.	.	8b-L)	.	8ryy	.
.	.	.	.	.	.	16ryy	.	16ryy	.	.	.	.	.	.	.	.	.	.	.	.	.	.	.	.	.	.
.	.	8ryy	.	8ryy	.	16ryy	.	16ryy	.	.	.	.	.	.	.	.	.	.	.	.	.	.	(8c-X	.	8ryy	.
.	.	.	.	.	.	16ryy	.	16ryy	.	.	.	.	.	.	.	.	.	.	.	.	.	.	.	.	.	.
8ryy	.	8ryy	.	8ryy	.	16ryy	.	16ryy	.	8ryy	.	8ryy	8ryy	.	8ryy	.	4d-X^	4d-'	4d-X^	4d-'	.	.	8d-X	.	8ryy	.
.	.	.	.	.	.	16ryy	.	16ryy	.	.	.	.	.	.	.	.	.	.	.	.	.	.	.	.	.	.
8ryy	.	8ryy	.	8ryy	.	16ryy	.	16ryy	.	8ryy	.	8ryy	8ryy	.	8ryy	.	.	.	.	.	.	.	8e-J	.	8ryy	.
.	.	.	.	.	.	16ryy	.	16ryy	.	.	.	.	.	.	.	.	.	.	.	.	.	.	.	.	.	.
!!pagebreak:original
=10	=10	=10	=10	=10	=10	=10	=10	=10	=10	=10	=10	=10	=10	=10	=10	=10	=10	=10	=10	=10	=10	=10	=10	=10	=10	=10
2ryy	.	8ryy	.	8ryy	.	16ryy	.	16ryy	.	2ryy	.	2ryy	2ryy	.	2ryy	.	4e-X^	4e-'	4e-X^	4e-'	1ryy	.	8fL)	.	8ryy	.
.	.	.	.	.	.	16ryy	.	16ryy	.	.	.	.	.	.	.	.	.	.	.	.	.	.	.	.	.	.
.	.	8ryy	.	8ryy	.	16ryy	.	16ryy	.	.	.	.	.	.	.	.	.	.	.	.	.	.	(8d-X	.	8ryy	.
.	.	.	.	.	.	16ryy	.	16ryy	.	.	.	.	.	.	.	.	.	.	.	.	.	.	.	.	.	.
.	.	8ryy	.	8ryy	.	16ryy	.	16ryy	.	.	.	.	.	.	.	.	8d-X^L	8d-'L	8d-X^L	8d-'L	.	.	8e-	.	8ryy	.
.	.	.	.	.	.	16ryy	.	16ryy	.	.	.	.	.	.	.	.	.	.	.	.	.	.	.	.	.	.
.	.	8ryy	.	8ryy	.	16ryy	.	16ryy	.	.	.	.	.	.	.	.	8e-^J	8e-'J	8e-^J	8e-'J	.	.	8fJ	.	8ryy	.
.	.	.	.	.	.	16ryy	.	16ryy	.	.	.	.	.	.	.	.	.	.	.	.	.	.	.	.	.	.
4ryy	.	8ryy	.	8ryy	.	16ryy	.	16ryy	.	4ryy	.	4ryy	4ryy	.	4ryy	.	4f^	4f'	4f^	4f'	.	.	8g-XL	.	8ryy	.
.	.	.	.	.	.	16ryy	.	16ryy	.	.	.	.	.	.	.	.	.	.	.	.	.	.	.	.	.	.
.	.	8ryy	.	8ryy	.	16ryy	.	16ryy	.	.	.	.	.	.	.	.	.	.	.	.	.	.	8a-X	.	8ryy	.
.	.	.	.	.	.	16ryy	.	16ryy	.	.	.	.	.	.	.	.	.	.	.	.	.	.	.	.	.	.
8ryy	.	8ryy	.	8ryy	.	16ryy	.	16ryy	.	8ryy	.	8ryy	8ryy	.	8ryy	.	8d-^L	8d-'L	8d-^L	8d-'L	.	.	8b-	.	8ryy	.
.	.	.	.	.	.	16ryy	.	16ryy	.	.	.	.	.	.	.	.	.	.	.	.	.	.	.	.	.	.
8ryy	.	8ryy	.	8ryy	.	16ryy	.	16ryy	.	8ryy	.	8ryy	8ryy	.	8ryy	.	8e-^J	8e-'J	8e-^J	8e-'J	.	.	8cc-XJ)	.	8ryy	.
.	.	.	.	.	.	16ryy	.	16ryy	.	.	.	.	.	.	.	.	.	.	.	.	.	.	.	.	.	.
!!LO:REH:t=172
=11	=11	=11	=11	=11	=11	=11	=11	=11	=11	=11	=11	=11	=11	=11	=11	=11	=11	=11	=11	=11	=11	=11	=11	=11	=11	=11
1ryy	.	8ryy	.	8ryy	.	16ryy	.	16ryy	.	1ryy	.	1ryy	1ryy	.	1ryy	.	4f^	4f'	4f^	4f'	1ryy	.	(8d-XL	.	8ryy	.
.	.	.	.	.	.	16ryy	.	16ryy	.	.	.	.	.	.	.	.	.	.	.	.	.	.	.	.	.	.
.	.	8ryy	.	8ryy	.	16ryy	.	16ryy	.	.	.	.	.	.	.	.	.	.	.	.	.	.	8e-	.	8ryy	.
.	.	.	.	.	.	16ryy	.	16ryy	.	.	.	.	.	.	.	.	.	.	.	.	.	.	.	.	.	.
.	.	8ryy	.	8ryy	.	16ryy	.	16ryy	.	.	.	.	.	.	.	.	[4g-X^	4g-'	[4g-X^	4g-'	.	.	8f	.	8ryy	.
.	.	.	.	.	.	16ryy	.	16ryy	.	.	.	.	.	.	.	.	.	.	.	.	.	.	.	.	.	.
.	.	8ryy	.	8ryy	.	16ryy	.	16ryy	.	.	.	.	.	.	.	.	.	.	.	.	.	.	8g-XJ	.	8ryy	.
.	.	.	.	.	.	16ryy	.	16ryy	.	.	.	.	.	.	.	.	.	.	.	.	.	.	.	.	.	.
.	.	8ryy	.	8ryy	.	16ryy	.	16ryy	.	.	.	.	.	.	.	.	4g-]	4r	4g-]	4r	.	.	8a-XL	.	8ryy	.
.	.	.	.	.	.	16ryy	.	16ryy	.	.	.	.	.	.	.	.	.	.	.	.	.	.	.	.	.	.
.	.	8ryy	.	8ryy	.	16ryy	.	16ryy	.	.	.	.	.	.	.	.	.	.	.	.	.	.	8b-	.	8ryy	.
.	.	.	.	.	.	16ryy	.	16ryy	.	.	.	.	.	.	.	.	.	.	.	.	.	.	.	.	.	.
.	.	8ryy	.	8ryy	.	16ryy	.	16ryy	.	.	.	.	.	.	.	.	[4f^	4f'	[4f^	4f'	.	.	8cc-X)	.	8ryy	.
.	.	.	.	.	.	16ryy	.	16ryy	.	.	.	.	.	.	.	.	.	.	.	.	.	.	.	.	.	.
.	.	8ryy	.	8ryy	.	16ryy	.	16ryy	.	.	.	.	.	.	.	.	.	.	.	.	.	.	(8d-J	.	8ryy	.
.	.	.	.	.	.	16ryy	.	16ryy	.	.	.	.	.	.	.	.	.	.	.	.	.	.	.	.	.	.
=12	=12	=12	=12	=12	=12	=12	=12	=12	=12	=12	=12	=12	=12	=12	=12	=12	=12	=12	=12	=12	=12	=12	=12	=12	=12	=12
4ryy	.	8ryy	.	8ryy	.	16ryy	.	16ryy	.	4ryy	.	4ryy	4ryy	.	4ryy	.	4f]	4r	4f]	4r	1ryy	.	8e-L	.	8ryy	.
.	.	.	.	.	.	16ryy	.	16ryy	.	.	.	.	.	.	.	.	.	.	.	.	.	.	.	.	.	.
.	.	8ryy	.	8ryy	.	16ryy	.	16ryy	.	.	.	.	.	.	.	.	.	.	.	.	.	.	8f)	.	8ryy	.
.	.	.	.	.	.	16ryy	.	16ryy	.	.	.	.	.	.	.	.	.	.	.	.	.	.	.	.	.	.
8ryy	.	8ryy	.	8ryy	.	16ryy	.	16ryy	.	8ryy	.	8ryy	8ryy	.	8ryy	.	8d-X^L	8d-'L	8d-X^L	8d-'L	.	.	(8d-X	.	8ryy	.
.	.	.	.	.	.	16ryy	.	16ryy	.	.	.	.	.	.	.	.	.	.	.	.	.	.	.	.	.	.
8ryy	.	8ryy	.	8ryy	.	16ryy	.	16ryy	.	8ryy	.	8ryy	8ryy	.	8ryy	.	8e-X^J	8e-'J	8e-X^J	8e-'J	.	.	8e-J	.	8ryy	.
.	.	.	.	.	.	16ryy	.	16ryy	.	.	.	.	.	.	.	.	.	.	.	.	.	.	.	.	.	.
2ryy	.	8ryy	.	8ryy	.	16ryy	.	16ryy	.	2ryy	.	2ryy	2ryy	.	2ryy	.	4f^	4f'	4f^	4f'	.	.	8fL	.	8ryy	.
.	.	.	.	.	.	16ryy	.	16ryy	.	.	.	.	.	.	.	.	.	.	.	.	.	.	.	.	.	.
.	.	8ryy	.	8ryy	.	16ryy	.	16ryy	.	.	.	.	.	.	.	.	.	.	.	.	.	.	8g-X	.	8ryy	.
.	.	.	.	.	.	16ryy	.	16ryy	.	.	.	.	.	.	.	.	.	.	.	.	.	.	.	.	.	.
.	.	8ryy	.	8ryy	.	16ryy	.	16ryy	.	.	.	.	.	.	.	.	[4g-X^	4g-'	[4g-X^	4g-'	.	.	8a-X	.	8ryy	.
.	.	.	.	.	.	16ryy	.	16ryy	.	.	.	.	.	.	.	.	.	.	.	.	.	.	.	.	.	.
.	.	8ryy	.	8ryy	.	16ryy	.	16ryy	.	.	.	.	.	.	.	.	.	.	.	.	.	.	8b-J)	.	8ryy	.
.	.	.	.	.	.	16ryy	.	16ryy	.	.	.	.	.	.	.	.	.	.	.	.	.	.	.	.	.	.
*	*	*	*	*	*	*	*	*Xtremolo	*	*	*	*	*	*	*	*	*	*	*	*	*	*	*	*	*	*
*	*	*	*	*	*	*Xtremolo	*	*	*	*	*	*	*	*	*	*	*	*	*	*	*	*	*	*	*	*
*	*	*	*	*	*	*	*	*	*	*	*	*	*	*	*	*	*v	*v	*	*	*	*	*	*	*	*
*	*	*	*	*	*	*	*	*	*	*	*	*	*	*	*	*	*	*v	*v	*	*	*	*	*	*
=	=	=	=	=	=	=	=	=	=	=	=	=	=	=	=	=	=	=	=	=	=	=	=	=
*-	*-	*-	*-	*-	*-	*-	*-	*-	*-	*-	*-	*-	*-	*-	*-	*-	*-	*-	*-	*-	*-	*-	*-	*-
!!!system-decoration: [(s1,s2,s3)][([(s4,s5)]s6[(s7,s8)])][(s9)][(s10,s11,s12,s13,s14)]
